img/walk.svg

<svg width="280" height="346" viewBox="0 0 280 346" fill="none" xmlns="http://www.w3.org/2000/svg">
<g style="mix-blend-mode:overlay" clip-path="url(#clip0_691_3205)">
<path d="M146.33 16.996C146.429 16.8277 146.33 11.3867 146.33 11.3867C146.33 11.3867 188.859 9.49081 191 9.07572C193.14 8.66064 245.99 5.00342 245.99 5.00342V10.0069" fill="#A5826A"/>
<path d="M67.3384 76.0051C67.3384 76.0051 75.1355 70.2052 90.9706 67.9615C106.806 65.7178 132.309 68.8926 132.309 73.5707C132.309 78.2488 130.892 79.9316 119.083 80.1111C107.274 80.2906 68.2882 81.4237 67.3384 76.0051Z" fill="#A5826A"/>
<path d="M19.7197 105.364L19.7481 100.731L77.8008 105.364" fill="#A5826A"/>
<path d="M28.7783 109.761C27.3607 109.761 12.4754 105.555 24.171 101.628C35.8666 97.7016 59.9666 86.4832 69.8902 87.0441C79.8137 87.605 124.115 85.3613 134.393 88.7269C144.671 92.0924 165.582 104.713 165.936 107.518C166.29 110.322 168.771 117.895 162.392 120.98C156.012 124.065 130.14 128.833 118.09 127.992C106.04 127.15 89.7373 125.187 89.7373 125.187" fill="#A5826A"/>
<path d="M19.8472 186.047L21.7326 195.773L42.9974 206.61L231.545 173.336L233.388 163.61L232.027 156.509L188.377 164.025" fill="#A5826A"/>
<path d="M118.615 206.24V214.464L137.512 231.291L249.974 223.068L267.936 206.24V199.072" fill="#A5826A"/>
<path d="M118.615 206.24L141.297 195.022C141.297 195.022 228.242 172.585 231.545 173.337C234.848 174.088 267.936 199.072 267.936 199.072C267.936 199.072 252.342 214.845 250.456 215.967C248.571 217.089 137.044 223.068 137.044 223.068L118.615 206.24Z" fill="#BCA18F"/>
<path d="M110.109 241.971L107.118 249.847L119.083 270.275L229.773 288.057L253.093 276.042L255.716 269.165" fill="#A5826A"/>
<path d="M110.109 241.971L135.924 236.362C135.924 236.362 227.349 234.713 230.241 236.182C233.133 237.652 255.758 269.12 255.758 269.12C255.758 269.12 235.075 280.675 232.863 281.314C230.652 281.954 121.677 262.243 121.677 262.243L110.109 241.971Z" fill="#BCA18F"/>
<path d="M83.7264 314.409L82.5923 322.587L105.005 341.457L253.221 346L279.022 331.304L280 324.18" fill="#A5826A"/>
<path d="M83.7266 314.409L114.915 305.827C114.915 305.827 232.041 305.714 236.266 306.836C240.49 307.958 280 324.214 280 324.214C280 324.214 257.445 338.125 254.823 339.033C252.2 339.942 105.516 333.188 105.516 333.188L83.7266 314.409Z" fill="#BCA18F"/>
<path d="M0 126.028V145.1C0 145.1 47.1369 162.769 49.6177 163.049C52.0986 163.33 134.322 152.953 134.322 152.953L186.421 146.782C186.421 146.782 157.473 129.674 118.615 127.431C79.757 125.187 23.0368 107.798 0 126.028Z" fill="#BCA18F"/>
<path d="M2.8353 154.916L0 145.1L49.6177 163.049L186.421 146.782L174.725 160.805L51.7442 173.314L2.8353 154.916Z" fill="#A5826A"/>
<path d="M240.348 27.6198V42.0019C240.348 42.0019 204.808 55.3182 202.937 55.5314C201.065 55.7445 139.142 47.914 139.142 47.914L99.8735 43.2696C99.8735 43.2696 121.691 30.3684 150.98 28.6856C180.268 27.0028 222.982 13.8884 240.348 27.6198Z" fill="#BCA18F"/>
<path d="M238.208 49.3949L240.348 42.002L202.951 55.5314L99.8311 43.2696L108.649 53.8374L201.335 63.2722L238.208 49.3949Z" fill="#A5826A"/>
<path d="M19.8472 186.047C23.1503 184.174 183.827 149.778 187.13 150.518C190.433 151.259 232.027 156.509 232.027 156.509L227.774 168.277L43.9472 201.383L19.8472 186.047Z" fill="#BCA18F"/>
<path d="M28.7783 105.835C27.3607 105.835 12.4754 101.628 24.171 97.7016C35.8666 93.7751 59.9666 82.5567 69.8902 83.1176C79.8137 83.6785 124.115 81.4348 134.393 84.8003C144.671 88.1659 165.582 100.787 165.936 103.591C166.29 106.396 168.771 113.968 162.392 117.053C156.012 120.139 130.14 124.906 118.09 124.065C106.04 123.224 89.7373 121.26 89.7373 121.26" fill="#BCA18F"/>
<path d="M67.3384 70.6763V76.0051L132.309 74.1429V68.2419" fill="#A5826A"/>
<path d="M67.3384 70.6764C67.3384 70.6764 75.1355 64.8765 90.9706 62.6328C106.806 60.3891 132.309 63.5639 132.309 68.242C132.309 72.9201 130.892 74.6029 119.083 74.7824C107.274 74.9619 68.2882 76.0949 67.3384 70.6764Z" fill="#BCA18F"/>
<path d="M140.744 80.3466C140.744 80.3466 149.534 75.5227 165.61 75.1413C181.686 74.7598 206.339 80.8739 205.474 85.4959C204.609 90.1179 202.894 91.6212 191.17 90.432C179.446 89.2429 140.673 85.8213 140.744 80.3466Z" fill="#A5826A"/>
<path d="M141.737 75.074L140.744 80.3467L205.361 86.0569L206.466 80.2233" fill="#A5826A"/>
<path d="M141.765 75.0739C141.765 75.0739 150.554 70.25 166.63 69.8686C182.707 69.4871 207.36 75.6012 206.495 80.2232C205.63 84.8452 203.9 86.3485 192.191 85.1593C180.481 83.9702 141.666 80.5485 141.765 75.0739Z" fill="#BCA18F"/>
<path d="M151.334 12.8676C151.334 12.8676 172.797 5.1942 208.252 5.0147C243.708 4.83521 244.19 8.55974 245.608 8.97482C247.025 9.38991 244.899 12.1496 243.722 12.9013C242.545 13.6529 204.028 20.3728 186.066 20.5635C168.105 20.7542 133.372 20.1933 151.334 12.8676Z" fill="#A5826A"/>
<path d="M151.334 7.8529C151.334 7.8529 172.797 0.190689 208.252 -2.46643e-05C243.708 -0.190739 244.19 3.54501 245.608 3.92644C247.025 4.30787 244.899 7.10127 243.722 7.8529C242.545 8.60454 204.028 15.3244 186.066 15.5151C168.105 15.7058 133.372 15.1561 151.334 7.8529Z" fill="#BCA18F"/>
</g>
<defs>
<clipPath id="clip0_691_3205">
<rect width="280" height="346" fill="white"/>
</clipPath>
</defs>
</svg>

<svg width="280" height="346" fill="none" xmlns="http://www.w3.org/2000/svg"><g style="mix-blend-mode:overlay" clip-path="url(#a)"><path d="M146.33 16.996c.099-.168 0-5.61 0-5.61s42.529-1.895 44.67-2.31c2.14-.415 54.99-4.073 54.99-4.073v5.004M67.338 76.005s7.797-5.8 23.633-8.043c15.835-2.244 41.338.93 41.338 5.609 0 4.678-1.417 6.36-13.226 6.54-11.809.18-50.795 1.313-51.745-4.106ZM19.72 105.364l.028-4.633 58.053 4.633" fill="#A5826A"/><path d="M28.778 109.761c-1.417 0-16.303-4.206-4.607-8.133 11.696-3.926 35.796-15.145 45.72-14.584 9.923.561 54.224-1.683 64.502 1.683 10.278 3.365 31.189 15.986 31.543 18.791.354 2.804 2.835 10.377-3.544 13.462-6.38 3.085-32.252 7.853-44.302 7.012-12.05-.842-28.353-2.805-28.353-2.805M19.847 186.047l1.886 9.726 21.264 10.837 188.548-33.274 1.843-9.726-1.361-7.101-43.65 7.516M118.615 206.24v8.224l18.897 16.827 112.462-8.223 17.962-16.828v-7.168" fill="#A5826A"/><path d="m118.615 206.24 22.682-11.218s86.945-22.437 90.248-21.685c3.303.751 36.391 25.735 36.391 25.735s-15.594 15.773-17.48 16.895c-1.885 1.122-113.412 7.101-113.412 7.101l-18.429-16.828Z" fill="#BCA18F"/><path d="m110.109 241.971-2.991 7.876 11.965 20.428 110.69 17.782 23.32-12.015 2.623-6.877" fill="#A5826A"/><path d="m110.109 241.971 25.815-5.609s91.425-1.649 94.317-.18c2.892 1.47 25.517 32.938 25.517 32.938s-20.683 11.555-22.895 12.194c-2.211.64-111.186-19.071-111.186-19.071l-11.568-20.272Z" fill="#BCA18F"/><path d="m83.726 314.409-1.134 8.178 22.413 18.87L253.221 346l25.801-14.696.978-7.124" fill="#A5826A"/><path d="m83.727 314.409 31.188-8.582s117.126-.113 121.351 1.009C240.49 307.958 280 324.214 280 324.214s-22.555 13.911-25.177 14.819c-2.623.909-149.307-5.845-149.307-5.845l-21.79-18.779ZM0 126.028V145.1s47.137 17.669 49.618 17.949c2.48.281 84.704-10.096 84.704-10.096l52.099-6.171s-28.948-17.108-67.806-19.351C79.757 125.187 23.037 107.798 0 126.028Z" fill="#BCA18F"/><path d="M2.835 154.916 0 145.1l49.618 17.949 136.803-16.267-11.696 14.023-122.98 12.509-48.91-18.398Z" fill="#A5826A"/><path d="M240.348 27.62v14.382s-35.54 13.316-37.411 13.53c-1.872.213-63.795-7.618-63.795-7.618L99.874 43.27s21.817-12.902 51.106-14.584c29.288-1.683 72.002-14.798 89.368-1.066Z" fill="#BCA18F"/><path d="m238.208 49.395 2.14-7.393-37.397 13.53L99.831 43.27l8.818 10.567 92.686 9.435 36.873-13.877Z" fill="#A5826A"/><path d="M19.847 186.047c3.303-1.873 163.98-36.269 167.283-35.529 3.303.741 44.897 5.991 44.897 5.991l-4.253 11.768-183.827 33.106-24.1-15.336ZM28.778 105.835c-1.417 0-16.303-4.207-4.607-8.133 11.696-3.927 35.796-15.145 45.72-14.584 9.923.56 54.224-1.683 64.502 1.682 10.278 3.366 31.189 15.987 31.543 18.791.354 2.805 2.835 10.377-3.544 13.462-6.38 3.086-32.252 7.853-44.302 7.012-12.05-.841-28.353-2.805-28.353-2.805" fill="#BCA18F"/><path d="M67.338 70.676v5.33l64.971-1.863v-5.901" fill="#A5826A"/><path d="M67.338 70.676s7.797-5.8 23.633-8.043c15.835-2.244 41.338.93 41.338 5.609 0 4.678-1.417 6.36-13.226 6.54-11.809.18-50.795 1.313-51.745-4.106Z" fill="#BCA18F"/><path d="M140.744 80.347s8.79-4.824 24.866-5.206c16.076-.381 40.729 5.733 39.864 10.355-.865 4.622-2.58 6.125-14.304 4.936-11.724-1.19-50.497-4.61-50.426-10.085Z" fill="#A5826A"/><path d="m141.737 75.074-.993 5.273 64.617 5.71 1.105-5.834" fill="#A5826A"/><path d="M141.765 75.074s8.789-4.824 24.865-5.205c16.077-.382 40.73 5.732 39.865 10.354-.865 4.622-2.595 6.126-14.304 4.936-11.71-1.189-50.525-4.61-50.426-10.085Z" fill="#BCA18F"/><path d="M151.334 12.868s21.463-7.674 56.918-7.853c35.456-.18 35.938 3.545 37.356 3.96 1.417.415-.709 3.175-1.886 3.926-1.177.752-39.694 7.472-57.656 7.663-17.961.19-52.694-.37-34.732-7.696Z" fill="#A5826A"/><path d="M151.334 7.853S172.797.19 208.252 0c35.456-.19 35.938 3.545 37.356 3.926 1.417.382-.709 3.175-1.886 3.927-1.177.752-39.694 7.471-57.656 7.662-17.961.19-52.694-.359-34.732-7.662Z" fill="#BCA18F"/></g><defs><clipPath id="a"><path fill="#fff" d="M0 0h280v346H0z"/></clipPath></defs></svg>
